docs/icons/friends.svg

<svg width="30" height="30" viewBox="0 0 30 30" fill="none" xmlns="http://www.w3.org/2000/svg">
<path d="M9.10082 3.34863C6.08143 3.34863 3.625 5.95312 3.625 9.15445C3.625 12.3558 6.08143 14.9603 9.10082 14.9603C12.1202 14.9603 14.5767 12.3558 14.5767 9.15445C14.5767 5.95312 12.1203 3.34863 9.10082 3.34863Z" fill="#557180"/>
<path d="M21.5504 4.17871C21.5381 4.17871 21.5255 4.17877 21.5132 4.17883C20.246 4.18932 19.0624 4.72434 18.1805 5.68545C17.314 6.62957 16.8429 7.8751 16.8537 9.19252C16.8646 10.5099 17.3563 11.7475 18.2381 12.6773C19.127 13.6142 20.3045 14.1288 21.5575 14.1288C21.5701 14.1288 21.5827 14.1287 21.5954 14.1287C22.8625 14.1182 24.0461 13.5831 24.9281 12.6221C25.7946 11.6779 26.2657 10.4324 26.2549 9.11494C26.2323 6.38482 24.1256 4.17871 21.5504 4.17871Z" fill="#557180"/>
<path d="M21.7801 15.0791H21.3254C19.2078 15.0791 17.2754 15.8842 15.8164 17.2037C16.1814 17.4838 16.5289 17.7891 16.8582 18.1184C17.8297 19.0898 18.5926 20.2219 19.1258 21.4828C19.6062 22.6184 19.8805 23.8148 19.9443 25.0471H29.9984V23.2969C29.9984 18.7658 26.3117 15.0791 21.7801 15.0791Z" fill="#557180"/>
<path d="M18.1846 25.0475C18.0188 22.3762 16.6646 20.0266 14.6438 18.5207C13.1736 17.425 11.3502 16.7764 9.375 16.7764H8.82773C3.95215 16.7764 0 20.7285 0 25.6041V26.6518H18.2021V25.6041C18.2021 25.4172 18.1963 25.2314 18.1846 25.0475Z" fill="#557180"/>
</svg>

<svg width="30" height="30" fill="none" xmlns="http://www.w3.org/2000/svg"><path d="M9.1 3.349c-3.019 0-5.475 2.604-5.475 5.805 0 3.202 2.456 5.806 5.476 5.806s5.476-2.604 5.476-5.806c0-3.2-2.457-5.805-5.476-5.805zM21.55 4.179h-.037c-1.267.01-2.45.545-3.333 1.506a5.098 5.098 0 00-1.326 3.508 5.099 5.099 0 001.384 3.484c.889.937 2.067 1.452 3.32 1.452h.037c1.268-.01 2.451-.546 3.333-1.507a5.098 5.098 0 001.327-3.507c-.023-2.73-2.13-4.936-4.705-4.936zM21.78 15.08h-.455c-2.117 0-4.05.804-5.509 2.124a10.545 10.545 0 014.128 7.843h10.054v-1.75c0-4.531-3.686-8.218-8.218-8.218zM18.185 25.047a8.815 8.815 0 00-3.541-6.526 8.786 8.786 0 00-5.269-1.745h-.547A8.827 8.827 0 000 25.604v1.048h18.202v-1.048a8.77 8.77 0 00-.017-.556z" fill="#557180"/></svg>
